dist/svg/u1F63C.svg

<?xml version="1.0" encoding="UTF-8"?><svg id="Layer_1" xmlns="http://www.w3.org/2000/svg" viewBox="0 0 40 40"><g><g><path id="SVGID" d="M26.56156,4.83946c-.6036-.53633-1.54692-.36313-1.92433,.3507l-1.59388,3.01464c-.28237,.53407-.83695,.86818-1.44108,.86818h-3.20478c-.60412,0-1.15871-.33411-1.44108-.86818l-1.5939-3.01468c-.3774-.71381-1.32071-.887-1.92428-.35065C8.29374,9.41106,2,15.98341,2,20.7822c0,8.11449,8.05875,14.69221,18,14.69221s18-6.57772,18-14.69221c0-4.79881-6.2938-11.37146-11.43844-15.94274Z" style="fill:#ffb72d;"/><path d="M37.69436,18.83266l-3.38329,1.72463c-.78332,.39924-.78332,1.51836,0,1.91761l3.20772,1.63502c.30434-1.07085,.48121-2.18132,.48121-3.32773,0-.62239-.11007-1.2757-.30564-1.94954Z"/><path d="M2.30564,18.83266l3.38329,1.72463c.78332,.39924,.78332,1.51836,0,1.91761l-3.20772,1.63502c-.30434-1.07085-.48121-2.18132-.48121-3.32773,0-.62239,.11007-1.2757,.30564-1.94954Z"/></g><path d="M20.98434,26.05717c-1.91768,.33814-3.47263,.27056-4.55286,.11656-.56031-.07988-.88267,.62617-.46035,1.00296,1.12815,1.0065,2.9979,2.1122,5.50509,1.67012,2.50719-.44208,3.88601-2.1206,4.60188-3.45225,.26799-.49851-.27641-1.05172-.77561-.78502-.96241,.51417-2.40047,1.1095-4.31815,1.44764Z" style="fill:#ff5e00;"/><circle cx="24.57197" cy="17.53004" r="2.08658"/><path d="M24.21474,15.02971c-1.35365,.78153-1.80817,1.90924-1.71453,2.65944,.04344,.34801,.28848,.37846,.49551,.0803,.32872-.47343,1.00066-.84737,2.04895-1.45259,.95578-.95578,2.05504-1.34265,2.44521-1.46859,.34544-.1115,.38402-.37682,.07328-.45384-.58764-.14564-1.99476-.14625-3.34841,.63528"/><circle cx="15.42803" cy="17.53004" r="2.08658"/><path d="M15.78526,15.02971c1.35365,.78153,1.80817,1.90924,1.71453,2.65944-.04344,.34801-.28848,.37846-.49551,.0803-.32872-.47343-1.00066-.84737-2.04895-1.45259-.95578-.95578-2.05504-1.34265-2.44521-1.46859-.34544-.1115-.38402-.37682-.07328-.45384,.58764-.14564,1.99476-.14625,3.34841,.63528"/><path d="M19.10047,19.74357h1.79906c.88139,0,1.35192,.82374,.77073,1.34928l-.89953,.81338c-.40836,.36925-1.13309,.36925-1.54145,0l-.89953-.81338c-.5812-.52553-.11066-1.34928,.77073-1.34928Z" style="fill:#ff5e01;"/></g><rect width="40" height="40" style="fill:none;"/></svg>

<svg id="Layer_1" data-name="Layer 1" xmlns="http://www.w3.org/2000/svg" viewBox="0 0 40 40"><defs><style>.cls-1{fill:#ffb72d;}.cls-2{fill:#ff5e00;}.cls-3{fill:#ff5e01;}.cls-4{fill:none;}</style></defs><path id="SVGID" class="cls-1" d="M26.562,4.839a1.243,1.243,0,0,0-1.925.351L23.043,8.205a1.63,1.63,0,0,1-1.441.868H18.4a1.631,1.631,0,0,1-1.441-.868L15.363,5.19a1.243,1.243,0,0,0-1.925-.351C8.294,9.411,2,15.983,2,20.782,2,28.9,10.059,35.474,20,35.474S38,28.9,38,20.782C38,15.983,31.706,9.411,26.562,4.839Z"/><path d="M37.694,18.833l-3.383,1.724a1.077,1.077,0,0,0,0,1.918l3.208,1.635A12.148,12.148,0,0,0,38,20.782,7.02,7.02,0,0,0,37.694,18.833Z"/><path d="M2.306,18.833l3.383,1.724a1.077,1.077,0,0,1,0,1.918L2.481,24.11A12.148,12.148,0,0,1,2,20.782,7.02,7.02,0,0,1,2.306,18.833Z"/><path class="cls-2" d="M20.984,26.057a14.505,14.505,0,0,1-4.553.117.578.578,0,0,0-.46,1A6.363,6.363,0,0,0,26.078,25.4a.578.578,0,0,0-.776-.785A14.492,14.492,0,0,1,20.984,26.057Z"/><circle cx="24.572" cy="17.53" r="2.087"/><path d="M24.215,15.03A2.921,2.921,0,0,0,22.5,17.689c.044.348.289.379.5.08a6.594,6.594,0,0,1,2.049-1.452,6.167,6.167,0,0,1,2.445-1.469c.345-.111.384-.377.073-.454a4.989,4.989,0,0,0-3.348.636"/><circle cx="15.428" cy="17.53" r="2.087"/><path d="M15.785,15.03A2.921,2.921,0,0,1,17.5,17.689c-.044.348-.289.379-.5.08a6.594,6.594,0,0,0-2.049-1.452,6.167,6.167,0,0,0-2.445-1.469c-.345-.111-.384-.377-.073-.454a4.989,4.989,0,0,1,3.348.636"/><path class="cls-3" d="M19.1,19.744h1.8c.881,0,1.351.823.77,1.349l-.9.813a1.212,1.212,0,0,1-1.542,0l-.9-.813C17.749,20.567,18.219,19.744,19.1,19.744Z"/><rect class="cls-4" width="40" height="40"/></svg>
